X:1
T:Sun Flower Slow Drag
T:Sun Flower Slow Drag
T:Rag Time Two Step
T:Scott Joplin and Scott Hayden
T:by Mutopia-2013/03/03-465
T:by Mutopia-2013/03/03-465
T:by Mutopia-2013/03/03-465
C:Scott Joplin and Scott Hayden
Z:by Mutopia-2013/03/03-465
%%score { ( 1 3 ) | 2 }
L:1/8
Q:1/4=72
M:2/4
K:Bb
V:1 treble nm="Piano" snm="Pno."
V:3 treble 
V:2 bass 
V:1
"^Not Fast"!mf! d/fB/ d2 | G/A/B/D/- D2 | E/F/G/E/ D/CF/ | F, !^![Ff]!^![Gg]!^![Aa] |: %4
 [Bb]/d/f/[Aa]/- [Aa]/[Gg][Bd]/ | [Ff]/[Bd]/[Gg]/[Ff]/- [Ff]/d/B/F/ | g/(G/^G/A/ B/)=g/=G/=e/ | %7
 f/F/d/[Gg]/- [Gg]/[Aa][_ef]/ | [Bb]/d/f/[Aa]/- [Aa]/[Gg][Bd]/ | %9
 [Ff]/[Bd]/[Gg]/[Ff]/- [Ff]/d/B/F/ | c/=B/c/d/ c/_B/A/G/ | F/c/_e/[Gg]/- [Gg]/[Aa][ef]/ | %12
 [Bb]/d/f/[Aa]/- [Aa]/[Gg][Bd]/ | [Ff]/[Bd]/[Gg]/[Ff]/- [Ff]/d/B/F/ | g/(G/^G/A/ B/)=g/=G/=e/ | %15
 [Ff]/[Bd]/[Gg]/[Aa]/- [Aa]/[Gg][Be]/ | [Ff]/[Bd]/[Gg]/[Ff]/- [Ff]/d/=B/G/ | [=Ed][Dc] [_Ed][Ec] |1 %18
 [DB]4- | [DB]!^![Ff] !^![Gg]!^![Aa] :|2 [DB]4- | [DB]!<(! z z2!<)! |: %22
!>(! z [Aeg]!f![Aeg][Aeg]!>)! | [Aef]/[Aea][Aeg]/- [Aeg]/f/e/c/ | B[Bdg] [Bdg][Bdg] | %25
 [Bdf]/[Bdb][Bdg]/- [Bdg]/d/f/[Bb]/ | [Aea][^Ge^g]/[Aea]/- [Aea]/[Bb]f/ | %27
 [cec'][=B=b]/[cec']/- [cec']/[^c^c']f/ | [dd']/B/d/f/ [A^ca]/[Gcg][Fdf]/- |!<(! [Fdf]4!<)! | %30
!>(! z [Aeg]!f![Aeg][Aeg]!>)! | [Aef]/[Aea][Aeg]/- [Aeg]/f/e/c/ | B[Bdg] [Bdg][Bdg] | %33
 [Bdg]/[Bdf][Bdf]/- [Bdf]/B/d/f/ | [Gg][Bb] [Aa][Gg] | [Ff]/[Bd]/[Gg]/[Ff]/- [Ff]/d/=B/G/ | %36
 [=Ed][Ec] [_Ed][Ec] |1!<(! [DB]4!<)! :|2 [DB]!^![Ff] !^![Gg]!^![Aa] || %39
 [Bb]/d/f/[Aa]/- [Aa]/[Gg][Bd]/ | [Ff]/[Bd]/[Gg]/[Ff]/- [Ff]/d/B/F/ | g/(G/^G/A/ B/)=g/=G/=e/ | %42
 f/F/d/[Gg]/- [Gg]/[Aa][_ef]/ | [Bb]/d/f/[Aa]/- [Aa]/[Gg][Bd]/ | %44
 [Ff]/[Bd]/[Gg]/[Ff]/- [Ff]/d/B/F/ | c/=B/c/d/ c/_B/A/G/ | F/c/_e/[Gg]/- [Gg]/[Aa][ef]/ | %47
 [Bb]/d/f/[Aa]/- [Aa]/[Gg][Bd]/ | [Ff]/[Bd]/[Gg]/[Ff]/- [Ff]/d/B/F/ | g/(G/^G/A/ B/)=g/=G/=e/ | %50
 [Ff]/[Bd]/[Gg]/[Aa]/- [Aa]/[Gg][Be]/ | [Ff]/[Bd]/[Gg]/[Ff]/- [Ff]/d/=B/G/ | [=Ed][Ec] [_Ed][Ec] | %53
 [DB]4- | [DB] z [Bdfb] z ||[K:Eb] [FAd]/[FAd][FA_d]/ [FAc]/[FAc]/[FA_c]/[FAB]/- | %56
 [FAB][Af]/[Bf]/ [Af]/[AB]/[Af]/B/ | [Ge]4 |!>(! [Ge] z z2!>)! |: %59
!p! [E=Ad][EAc]/[EAd]/- [EAd]/c/A/F/ | [_Adg][Adf]/[Adg]/- [Adg]/f/d/B/ | %61
 [ff']/[gb]/[ee']/[dd']/- [dd']/[cc'][eg]/ | [Bb]/[eg]/[cc']/[Bb]/- [Bb]/e/g/b/ | %63
 [ee']/a/c'/[ee']/- [ee']/[ff'][ee']/ | [Bb]/e/g/[Bb]/- [Bb]/[cc'][Bb]/ | %65
 [Ff]/[ee']/[dd']/[cc']/- [cc']/[Ff]/[Gg]/[=A=a]/ | [Bb]3 z | [E=Ad][EAc]/[EAd]/- [EAd]/c/A/F/ | %68
 [Adg][Adf]/[Adg]/- [Adg]/f/d/B/ | [ff']/[gb]/[ee']/[dd']/- [dd']/[cc'][eg]/ | %70
 [Bb]/[eg]/[cc']/[Bb]/- [Bb]/e/g/[Bb]/ | [cfac']2 [cfac'][_cfa_c'] | %72
 [Begb]/[eg]/[=c=c']/[Bb]/- [Bb]/g/=e/c/ | [=Ag][Af] [_Ag][Af] |1 [Ge]4 :|2 %75
 [Ge]2!<(! [Bb][=B=b]!<)! |:!f! [cc']/a/b/[cc']/- [cc']/[^c^c']a/ | %77
 [dd']/a/b/[dd']/- [dd']/[gg'][ff']/ | [ee']/g/b/[dd']/- [dd']/[cc'][eg]/ | %79
 [Bb]2- [Bb]/[Bb]/[cc']/[dd']/ | [ee']/a/b/[dd']/- [dd']/[cc']d/ | [Bb]2- [Bb]/[Bb]/[cc']/[dd']/ | %82
 [ee']/g/b/[dd']/- [dd']/[cc']e/ | [Bb]2 [Bab][=Ba=b] | [cc']/a/b/[cc']/- [cc']/[^c^c']a/ | %85
 [dd']/a/b/[dd']/- [dd']/[gg'][ff']/ | [ee']/g/b/[dd']/- [dd']/[cc'][eg]/ | %87
 [Bb]/[eg]/[cc']/[Bb]/- [Bb]/e/g/[Bb]/ | [cfac']2 [cfac'][_cfa_c'] | %89
 [Begb]/[eg]/[=c=c']/[Bb]/- [Bb]/g/=e/c/ | [=Ag][Af] [_Ag][Af] |1 [Ge]2 [Bab][=Ba=b] :|2 %92
 [Ge]2 [egbe'] z |] %93
V:2
 D/FB,/ D2 | G,/A,/B,/D,/- D,2 | E,/F,/G,/E,/ D,/C,F,/ | F,, !^![F,,F,]!^![E,,E,]!^![C,,C,] |: %4
 !^![B,,,B,,][F,B,D] F,,[F,B,D] | B,,[F,B,D] D,[F,B,D] | [E,E][B,,B,] [C,C][^C,^C] | %7
 [D,D][F,,F,] [E,,E,][C,,C,] | !^![B,,,B,,][F,B,D] F,,[F,B,D] | B,,[F,B,D] D,_D, | %10
 C,[A,CF] C,[G,B,C=E] | [F,A,C]!^![F,,F,] !^![_E,,_E,]!^![C,,C,] | !^![B,,,B,,][F,B,D] F,,[F,B,D] | %13
 B,,[F,B,D] D,[F,B,D] | [E,E][B,,B,] [C,C][^C,^C] | [D,D][E,E] [F,F][E,E] | %16
 [D,D][F,B,D] G,,[G,=B,DF] | [C,G,_B,][C,G,B,] [F,A,][F,A,] |1 %18
 [B,,B,][F,,F,]/[G,,G,]/- [G,,G,]/[F,,F,]/[D,,D,]/[C,,C,]/ | %19
 [B,,,B,,]!^![F,,F,] !^![E,,E,]!^![C,,C,] :|2 %20
 [B,,B,][F,,F,]/[G,,G,]/- [G,,G,]/[F,,F,]/[D,,D,]/[C,,C,]/ | [B,,,B,,][F,,F,] [G,,G,][^G,,^G,] |: %22
 !^![A,,A,][F,CE] F,,[F,CE] | C,[F,CE] F,,[F,CE] | B,,[F,B,D] F,,[F,B,D] | B,,[F,B,D] F,,[F,B,D] | %26
 C,[F,CE] F,,[F,CE] | A,,[F,A,E] F,,[F,A,E] | B,,[F,B,D] [=E,B,^C][E,B,C] | %29
 [F,B,D][F,,F,] [G,,G,][^G,,^G,] | !^![A,,A,][F,CE] F,,[F,CE] | C,[F,CE] F,,[F,CE] | %32
 B,,[F,B,D] F,,[F,B,D] | B,,[F,B,D] D,[F,_A,B,D] | [E,G,B,E][G,,G,] [F,,F,][E,,E,] | %35
 [D,,D,][F,B,D] G,,[G,=B,DF] | [C,G,_B,][C,G,B,] [F,A,][F,A,] |1 %37
 [B,,B,][F,,F,] [G,,G,][^G,,^G,] :|2 [B,,B,]!^![F,,F,] !^![E,,E,]!^![C,,C,] || %39
 !^![B,,,B,,][F,B,D] F,,[F,B,D] | B,,[F,B,D] D,[F,B,D] | [E,E][B,,B,] [C,C][^C,^C] | %42
 [D,D]!^![F,,F,] !^![E,,E,]!^![C,,C,] | !^![B,,,B,,][F,B,D] F,,[F,B,D] | B,,[F,B,D] D,_D, | %45
 C,[A,CF] C,[G,B,C=E] | [F,A,C]!^![F,,F,] !^![_E,,_E,]!^![C,,C,] | !^![B,,,B,,][F,B,D] F,,[F,B,D] | %48
 B,,[F,B,D] D,[F,B,D] | [E,E][B,,B,] [C,C][^C,^C] | [D,D][E,E] [F,F][E,E] | %51
 [D,D][F,B,D] F,,[G,=B,DF] | [C,G,_B,][C,G,B,] [F,A,][F,A,] | %53
 [B,,B,][F,,F,]/[G,,G,]/- [G,,G,]/[F,,F,]/[D,,D,]/[C,,C,]/ | [B,,,B,,] z [B,,,B,,] z || %55
[K:Eb] [B,,,B,,][=B,,,=B,,] [C,,C,][^C,,^C,] | [D,,D,][_B,,,_B,,] [=C,,=C,][D,,D,] | %57
 [E,,E,][G,,G,]/[A,,A,]/ [=A,,=A,]/[B,,B,]/[C,C]/[D,D]/ | %58
 [E,E][B,,,B,,] [G,,,G,,]!mf![_G,,,_G,,] |: [F,,,F,,]2 [=A,,,=A,,]2 | [B,,,B,,]2 [D,,D,]2 | %61
 [E,,E,][B,EG] B,,[B,EG] | E,[B,EG] G,,[B,EG] | A,,[CEA] A,,[_CEA] | E,[B,EG] [G,,G,][_G,,_G,] | %65
 [F,,F,][F,B,D] F,[=A,E] | [B,D][B,,,B,,] [G,,,G,,][_G,,,_G,,] | [F,,,F,,]2 [=A,,,=A,,]2 | %68
 [B,,,B,,]2 [D,,D,]2 | [E,,E,][B,EG] B,,[B,EG] | E,[B,EG] [G,,G,][B,EG] | %71
 [A,,A,][CFA] [F,,F,][G,,G,]/[A,,A,]/ | [B,,B,][B,EG] C,[B,C=E] | [F,CE][F,CE] [B,D][B,D] |1 %74
 [E,E][B,,,B,,] [G,,,G,,][_G,,,_G,,] :|2 [E,E][B,,B,] [B,,,B,,]2 |: [F,,F,][B,DA] B,,[B,DA] | %77
 F,[B,DA] B,,[B,DA] | E,[B,EG] B,,[B,EG] | E,[B,EG] B,,[B,EG] | F,[B,DA] B,,[B,DA] | %81
 D,[B,DA] B,,[B,DA] | E,[B,EG] B,,[B,EG] | E,[B,EG] [B,,,B,,]2 | [F,,F,][B,DA] B,,[B,DA] | %85
 F,[B,DA] B,,[B,DA] | E,[B,EG] B,,[B,EG] | E,[B,EG] [G,,G,][B,EG] | %88
 [A,,A,][CFA] [F,,F,][G,,G,]/[A,,A,]/ | [B,,B,][B,EG] C,[B,C=E] | [F,CE][F,CE] [B,D][B,D] |1 %91
 [E,E][B,,B,] !^![B,,,B,,]2 :|2 [E,E][B,,B,] [E,,E,] z |] %93
V:3
 x4 | x4 | x4 | x4 |: x4 | x4 | x4 | x4 | x4 | x4 | x4 | x4 | x4 | x4 | x4 | x4 | x4 | x4 |1 x4 | %19
 x4 :|2 x4 | x4 |: x4 | x4 | x4 | x4 | x4 | x4 | x4 | x4 | x4 | x4 | x4 | x4 | x4 | x4 | x4 |1 %37
 x4 :|2 x4 || x4 | x4 | x4 | x4 | x4 | x4 | x4 | x4 | x4 | x4 | x4 | x4 | x4 | x4 | x4 | x4 || %55
[K:Eb] x4 | x A A A | x4 | x4 |: x4 | x4 | x4 | x4 | x4 | x4 | x4 | x4 | x4 | x4 | x4 | x4 | x4 | %72
 x4 | x4 |1 x4 :|2 x4 |: x4 | x4 | x4 | x4 | x4 | x4 | x4 | x4 | x4 | x4 | x4 | x4 | x4 | x4 | %90
 x4 |1 x4 :|2 x4 |] %93

